_images/SocialNetwork/facebook.svg

<svg width="30" height="30" viewBox="0 0 30 30" fill="none" xmlns="http://www.w3.org/2000/svg">
<path d="M15 28.9636C22.7119 28.9636 28.9636 22.7119 28.9636 15C28.9636 7.2881 22.7119 1.03636 15 1.03636C7.2881 1.03636 1.03636 7.2881 1.03636 15C1.03636 22.7119 7.2881 28.9636 15 28.9636Z" fill="#3F65A6"/>
<path d="M12.8782 10.4073C12.8782 10.8109 12.8782 12.6109 12.8782 12.6109H11.2636V15.3055H12.8782V22.6909H16.1945V15.3H18.42C18.42 15.3 18.6273 14.0073 18.7309 12.5945C18.4418 12.5945 16.2109 12.5945 16.2109 12.5945C16.2109 12.5945 16.2109 11.0291 16.2109 10.7509C16.2109 10.4782 16.5709 10.1073 16.9309 10.1073C17.2855 10.1073 18.0382 10.1073 18.7364 10.1073C18.7364 9.74182 18.7364 8.47091 18.7364 7.30364C17.8036 7.30364 16.7455 7.30364 16.2818 7.30364C12.7964 7.30909 12.8782 10.0036 12.8782 10.4073Z" fill="white"/>
</svg>

<svg xmlns="http://www.w3.org/2000/svg" width="30" height="30" fill="none"><path fill="#3F65A6" d="M15 28.964c7.712 0 13.964-6.252 13.964-13.964 0-7.712-6.252-13.964-13.964-13.964C7.288 1.036 1.036 7.288 1.036 15c0 7.712 6.252 13.964 13.964 13.964Z"/><path fill="#fff" d="M12.878 10.407v2.204h-1.614v2.694h1.614v7.386h3.317V15.3h2.225s.207-1.293.31-2.706h-2.52v-1.843c0-.273.36-.644.72-.644h1.806V7.304h-2.454c-3.486.005-3.404 2.7-3.404 3.103Z"/></svg>
